docs/content/guide/code-blocks/diagrams/code-block-rendering-pipeline-dark.svg

<svg xmlns="http://www.w3.org/2000/svg" width="457pt" height="632" viewBox="0 0 457 474"><g id="graph0" class="graph" transform="translate(14.4 459.12)"><title>CodeBlockRenderingPipeline</title><g id="node1" class="node"><title>source</title><path fill="#193966" stroke="#6c8ebf" d="M174.53-444.72H27.89c-6 0-12 6-12 12v26.88c0 6 6 12 12 12h146.64c6 0 12-6 12-12v-26.88c0-6-6-12-12-12"/><text xml:space="preserve" x="101.21" y="-423.48" fill="#d9d9d9" font-family="Times,serif" font-size="14" text-anchor="middle">Markdown source</text><text xml:space="preserve" x="101.21" y="-406.68" fill="#d9d9d9" font-family="Times,serif" font-size="14" text-anchor="middle">fenced code + meta string</text></g><g id="node2" class="node"><title>core</title><path fill="#193966" stroke="#6c8ebf" d="M167.11-335.84H35.32c-6 0-12 6-12 12v60.48c0 6 6 12 12 12h131.79c6 0 12-6 12-12v-60.48c0-6-6-12-12-12"/><text xml:space="preserve" x="101.21" y="-314.6" fill="#d9d9d9" font-family="Times,serif" font-size="14" text-anchor="middle">@pagesmith/core</text><text xml:space="preserve" x="101.21" y="-297.8" fill="#d9d9d9" font-family="Times,serif" font-size="14" text-anchor="middle">Shiki highlighting</text><text xml:space="preserve" x="101.21" y="-281" fill="#d9d9d9" font-family="Times,serif" font-size="14" text-anchor="middle">frame markup</text><text xml:space="preserve" x="101.21" y="-264.2" fill="#d9d9d9" font-family="Times,serif" font-size="14" text-anchor="middle">inline light/dark tokens</text></g><g id="edge1" class="edge"><title>source-&gt;core</title><path fill="none" stroke="#aaa" d="M101.21-393.55v45.81"/><path fill="#404040" stroke="#aaa" d="m104.71-347.85-3.5 10-3.5-10z"/></g><g id="node3" class="node"><title>html</title><path fill="#193966" stroke="#6c8ebf" d="M190.42-184.96H12c-6 0-12 6-12 12v26.88c0 6 6 12 12 12h178.42c6 0 12-6 12-12v-26.88c0-6-6-12-12-12"/><text xml:space="preserve" x="101.21" y="-163.72" fill="#d9d9d9" font-family="Times,serif" font-size="14" text-anchor="middle">Rendered HTML</text><text xml:space="preserve" x="101.21" y="-146.92" fill="#d9d9d9" font-family="Times,serif" font-size="14" text-anchor="middle">Pagesmith code-block structure</text></g><g id="edge2" class="edge"><title>core-&gt;html</title><path fill="none" stroke="#aaa" d="M101.21-251.17v54.8"/><path fill="#404040" stroke="#aaa" d="m104.71-196.78-3.5 10-3.5-10z"/></g><g id="node5" class="node"><title>browser</title><path fill="#193966" stroke="#6c8ebf" d="M267.93-67.68H166.49c-6 0-12 6-12 12V-12c0 6 6 12 12 12h101.44c6 0 12-6 12-12v-43.68c0-6-6-12-12-12"/><text xml:space="preserve" x="217.21" y="-46.44" fill="#d9d9d9" font-family="Times,serif" font-size="14" text-anchor="middle">Browser result</text><text xml:space="preserve" x="217.21" y="-29.64" fill="#d9d9d9" font-family="Times,serif" font-size="14" text-anchor="middle">styled, interactive</text><text xml:space="preserve" x="217.21" y="-12.84" fill="#d9d9d9" font-family="Times,serif" font-size="14" text-anchor="middle">code blocks</text></g><g id="edge3" class="edge"><title>html-&gt;browser</title><path fill="none" stroke="#aaa" d="M124.41-133.79c15.43 16.46 36.09 38.48 53.99 57.57"/><path fill="#404040" stroke="#aaa" d="m180.82-78.76 4.29 9.69-9.4-4.9z"/></g><g id="node4" class="node"><title>site</title><path fill="#193966" stroke="#6c8ebf" d="M416.4-193.36H250.02c-6 0-12 6-12 12v43.68c0 6 6 12 12 12H416.4c6 0 12-6 12-12v-43.68c0-6-6-12-12-12"/><text xml:space="preserve" x="333.21" y="-172.12" fill="#d9d9d9" font-family="Times,serif" font-size="14" text-anchor="middle">@pagesmith/site</text><text xml:space="preserve" x="333.21" y="-155.32" fill="#d9d9d9" font-family="Times,serif" font-size="14" text-anchor="middle">shared CSS</text><text xml:space="preserve" x="333.21" y="-138.52" fill="#d9d9d9" font-family="Times,serif" font-size="14" text-anchor="middle">copy / collapse / tabs runtime</text></g><g id="edge4" class="edge"><title>site-&gt;browser</title><path fill="none" stroke="#aaa" d="M302.13-125.38c-14.18 15.12-31.1 33.16-46.1 49.16"/><path fill="#404040" stroke="#aaa" d="m258.81-74.08-9.39 4.9 4.29-9.69z"/></g></g></svg>

<?xml version="1.0" encoding="UTF-8" standalone="no"?>
<!DOCTYPE svg PUBLIC "-//W3C//DTD SVG 1.1//EN"
 "http://www.w3.org/Graphics/SVG/1.1/DTD/svg11.dtd">
<!-- Generated by graphviz version 14.1.5 (20260411.2331)
 -->
<!-- Title: CodeBlockRenderingPipeline Pages: 1 -->
<svg width="457pt" height="474pt"
 viewBox="0.00 0.00 457.00 474.00" xmlns="http://www.w3.org/2000/svg" xmlns:xlink="http://www.w3.org/1999/xlink">
<g id="graph0" class="graph" transform="scale(1 1) rotate(0) translate(14.4 459.12)">
<title>CodeBlockRenderingPipeline</title>
<!-- source -->
<g id="node1" class="node">
<title>source</title>
<path fill="#193966" stroke="#6c8ebf" d="M174.53,-444.72C174.53,-444.72 27.89,-444.72 27.89,-444.72 21.89,-444.72 15.89,-438.72 15.89,-432.72 15.89,-432.72 15.89,-405.84 15.89,-405.84 15.89,-399.84 21.89,-393.84 27.89,-393.84 27.89,-393.84 174.53,-393.84 174.53,-393.84 180.53,-393.84 186.53,-399.84 186.53,-405.84 186.53,-405.84 186.53,-432.72 186.53,-432.72 186.53,-438.72 180.53,-444.72 174.53,-444.72"/>
<text xml:space="preserve" text-anchor="middle" x="101.21" y="-423.48" font-family="Times,serif" font-size="14.00" fill="#e5e7eb">Markdown source</text>
<text xml:space="preserve" text-anchor="middle" x="101.21" y="-406.68" font-family="Times,serif" font-size="14.00" fill="#e5e7eb">fenced code + meta string</text>
</g>
<!-- core -->
<g id="node2" class="node">
<title>core</title>
<path fill="#193966" stroke="#6c8ebf" d="M167.11,-335.84C167.11,-335.84 35.32,-335.84 35.32,-335.84 29.32,-335.84 23.32,-329.84 23.32,-323.84 23.32,-323.84 23.32,-263.36 23.32,-263.36 23.32,-257.36 29.32,-251.36 35.32,-251.36 35.32,-251.36 167.11,-251.36 167.11,-251.36 173.11,-251.36 179.11,-257.36 179.11,-263.36 179.11,-263.36 179.11,-323.84 179.11,-323.84 179.11,-329.84 173.11,-335.84 167.11,-335.84"/>
<text xml:space="preserve" text-anchor="middle" x="101.21" y="-314.6" font-family="Times,serif" font-size="14.00" fill="#e5e7eb">@pagesmith/core</text>
<text xml:space="preserve" text-anchor="middle" x="101.21" y="-297.8" font-family="Times,serif" font-size="14.00" fill="#e5e7eb">Shiki highlighting</text>
<text xml:space="preserve" text-anchor="middle" x="101.21" y="-281" font-family="Times,serif" font-size="14.00" fill="#e5e7eb">frame markup</text>
<text xml:space="preserve" text-anchor="middle" x="101.21" y="-264.2" font-family="Times,serif" font-size="14.00" fill="#e5e7eb">inline light/dark tokens</text>
</g>
<!-- source&#45;&gt;core -->
<g id="edge1" class="edge">
<title>source&#45;&gt;core</title>
<path fill="none" stroke="#aaaaaa" d="M101.21,-393.55C101.21,-380.39 101.21,-363.67 101.21,-347.74"/>
<polygon fill="#404040" stroke="#aaaaaa" points="104.71,-347.85 101.21,-337.85 97.71,-347.85 104.71,-347.85"/>
</g>
<!-- html -->
<g id="node3" class="node">
<title>html</title>
<path fill="#193966" stroke="#6c8ebf" d="M190.42,-184.96C190.42,-184.96 12,-184.96 12,-184.96 6,-184.96 0,-178.96 0,-172.96 0,-172.96 0,-146.08 0,-146.08 0,-140.08 6,-134.08 12,-134.08 12,-134.08 190.42,-134.08 190.42,-134.08 196.42,-134.08 202.42,-140.08 202.42,-146.08 202.42,-146.08 202.42,-172.96 202.42,-172.96 202.42,-178.96 196.42,-184.96 190.42,-184.96"/>
<text xml:space="preserve" text-anchor="middle" x="101.21" y="-163.72" font-family="Times,serif" font-size="14.00" fill="#e5e7eb">Rendered HTML</text>
<text xml:space="preserve" text-anchor="middle" x="101.21" y="-146.92" font-family="Times,serif" font-size="14.00" fill="#e5e7eb">Pagesmith code&#45;block structure</text>
</g>
<!-- core&#45;&gt;html -->
<g id="edge2" class="edge">
<title>core&#45;&gt;html</title>
<path fill="none" stroke="#aaaaaa" d="M101.21,-251.17C101.21,-233.59 101.21,-213.3 101.21,-196.37"/>
<polygon fill="#404040" stroke="#aaaaaa" points="104.71,-196.78 101.21,-186.78 97.71,-196.78 104.71,-196.78"/>
</g>
<!-- browser -->
<g id="node5" class="node">
<title>browser</title>
<path fill="#193966" stroke="#6c8ebf" d="M267.93,-67.68C267.93,-67.68 166.49,-67.68 166.49,-67.68 160.49,-67.68 154.49,-61.68 154.49,-55.68 154.49,-55.68 154.49,-12 154.49,-12 154.49,-6 160.49,0 166.49,0 166.49,0 267.93,0 267.93,0 273.93,0 279.93,-6 279.93,-12 279.93,-12 279.93,-55.68 279.93,-55.68 279.93,-61.68 273.93,-67.68 267.93,-67.68"/>
<text xml:space="preserve" text-anchor="middle" x="217.21" y="-46.44" font-family="Times,serif" font-size="14.00" fill="#e5e7eb">Browser result</text>
<text xml:space="preserve" text-anchor="middle" x="217.21" y="-29.64" font-family="Times,serif" font-size="14.00" fill="#e5e7eb">styled, interactive</text>
<text xml:space="preserve" text-anchor="middle" x="217.21" y="-12.84" font-family="Times,serif" font-size="14.00" fill="#e5e7eb">code blocks</text>
</g>
<!-- html&#45;&gt;browser -->
<g id="edge3" class="edge">
<title>html&#45;&gt;browser</title>
<path fill="none" stroke="#aaaaaa" d="M124.41,-133.79C139.84,-117.33 160.5,-95.31 178.4,-76.22"/>
<polygon fill="#404040" stroke="#aaaaaa" points="180.82,-78.76 185.11,-69.07 175.71,-73.97 180.82,-78.76"/>
</g>
<!-- site -->
<g id="node4" class="node">
<title>site</title>
<path fill="#193966" stroke="#6c8ebf" d="M416.4,-193.36C416.4,-193.36 250.02,-193.36 250.02,-193.36 244.02,-193.36 238.02,-187.36 238.02,-181.36 238.02,-181.36 238.02,-137.68 238.02,-137.68 238.02,-131.68 244.02,-125.68 250.02,-125.68 250.02,-125.68 416.4,-125.68 416.4,-125.68 422.4,-125.68 428.4,-131.68 428.4,-137.68 428.4,-137.68 428.4,-181.36 428.4,-181.36 428.4,-187.36 422.4,-193.36 416.4,-193.36"/>
<text xml:space="preserve" text-anchor="middle" x="333.21" y="-172.12" font-family="Times,serif" font-size="14.00" fill="#e5e7eb">@pagesmith/site</text>
<text xml:space="preserve" text-anchor="middle" x="333.21" y="-155.32" font-family="Times,serif" font-size="14.00" fill="#e5e7eb">shared CSS</text>
<text xml:space="preserve" text-anchor="middle" x="333.21" y="-138.52" font-family="Times,serif" font-size="14.00" fill="#e5e7eb">copy / collapse / tabs runtime</text>
</g>
<!-- site&#45;&gt;browser -->
<g id="edge4" class="edge">
<title>site&#45;&gt;browser</title>
<path fill="none" stroke="#aaaaaa" d="M302.13,-125.38C287.95,-110.26 271.03,-92.22 256.03,-76.22"/>
<polygon fill="#404040" stroke="#aaaaaa" points="258.81,-74.08 249.42,-69.18 253.71,-78.87 258.81,-74.08"/>
</g>
</g>
</svg>
